build/img/icons/icon-mark.svg

<svg width="16" height="21" viewBox="0 0 16 21" fill="none" xmlns="http://www.w3.org/2000/svg">
<path d="M8.00001 4.18766C7.31187 4.18445 6.63826 4.38526 6.06453 4.76464C5.4908 5.14403 5.04277 5.68491 4.7772 6.31876C4.51163 6.95261 4.44048 7.6509 4.57276 8.32516C4.70504 8.99943 5.03479 9.61931 5.52025 10.1063C6.0057 10.5933 6.62501 10.9254 7.2997 11.0606C7.97438 11.1958 8.67409 11.1281 9.31017 10.8659C9.94624 10.6037 10.4901 10.1589 10.8727 9.58784C11.2554 9.01678 11.4596 8.34517 11.4596 7.6581C11.4597 6.74048 11.0957 5.8602 10.4473 5.20984C9.79899 4.55947 8.91905 4.19194 8.00001 4.18766ZM8.00001 9.509C7.63269 9.51221 7.2727 9.40639 6.96572 9.20497C6.65874 9.00355 6.41861 8.71561 6.27581 8.3777C6.13301 8.03979 6.09398 7.66713 6.16367 7.30703C6.23335 6.94693 6.40862 6.61562 6.66722 6.35515C6.92582 6.09467 7.25609 5.91678 7.61613 5.84404C7.97616 5.7713 8.34972 5.80699 8.68941 5.94659C9.02909 6.08619 9.31957 6.32341 9.524 6.62813C9.72842 6.93285 9.83756 7.29134 9.83758 7.6581C9.83821 8.14659 9.6454 8.61553 9.30118 8.96268C8.95696 9.30983 8.48925 9.50704 8.00001 9.51131V9.509Z" fill="#F2890F"/>
<path d="M8.00002 -3.08902e-08C3.80814 -3.08902e-08 0.299847 3.35707 0.0125101 7.63496C-0.0959796 9.60486 0.503931 11.5487 1.70409 13.1159L7.3512 20.6745C7.4267 20.7756 7.52477 20.8576 7.63761 20.9141C7.75045 20.9706 7.87494 21 8.00118 21C8.12742 21 8.25191 20.9706 8.36475 20.9141C8.47759 20.8576 8.57566 20.7756 8.65117 20.6745L14.2959 13.1206C15.4959 11.5532 16.0958 9.60946 15.9875 7.63959C15.7002 3.35707 12.1919 -3.08902e-08 8.00002 -3.08902e-08ZM12.996 12.1512L8.00002 18.8236L3.00406 12.1512C2.03779 10.8954 1.55143 9.33682 1.63226 7.75527C1.83386 4.74756 4.27159 1.62648 8.00234 1.62648C11.7331 1.62648 14.1662 4.73599 14.3678 7.74833C14.4503 9.33222 13.9638 10.8935 12.996 12.1512Z" fill="#F2890F"/>
</svg>

<svg width="16" height="21" fill="none" xmlns="http://www.w3.org/2000/svg"><path d="M8 4.188a3.48 3.48 0 00-3.223 2.13 3.465 3.465 0 00.743 3.788 3.477 3.477 0 005.94-2.448A3.478 3.478 0 008 4.188zm0 5.321a1.856 1.856 0 01-1.724-1.131 1.848 1.848 0 011.34-2.534 1.857 1.857 0 011.908.784 1.849 1.849 0 01-.223 2.335A1.855 1.855 0 018 9.51z" fill="#F2890F"/><path d="M8 0C3.808 0 .3 3.357.013 7.635a8.267 8.267 0 001.691 5.48l5.647 7.56a.81.81 0 001.3 0l5.645-7.554a8.27 8.27 0 001.692-5.481C15.7 3.357 12.192 0 8 0zm4.996 12.151L8 18.824 3.004 12.15a6.652 6.652 0 01-1.372-4.396c.202-3.007 2.64-6.129 6.37-6.129 3.731 0 6.164 3.11 6.366 6.122a6.652 6.652 0 01-1.372 4.403z" fill="#F2890F"/></svg>
